X:43
T:Triumpt,The. GS.043
T:Triumph,The. GS.043
M:2/2
L:1/8
Q:1/2=80
S:George Spencer m/s, Leeds,1831
R:.Reel
O:England
A:Leeds
H:1831
Z:vmp.Cherri Graebe
K:G major
g | dBAG cAGF | Ggfe â€œcrâ€d3 g | dBAG cAGF | G2B2G2z2 :|!
|: A2c2B2d2 | A2c2 B2d2 | A2 A>c B2 B>d | dcBA G2 z2 :|!
|: B3 d dcBA | B3 d dcBA | B2cd efge | dcBA G2z2 ğŸ˜

